icons/svg/not-equal.svg

<svg xmlns="http://www.w3.org/2000/svg" version="1.1" baseProfile="full" width="24" height="24" viewBox="0 0 24.00 24.00" xml:space="preserve"><path fill="#000" fill-opacity="1" stroke-width=".2" stroke-linejoin="round" d="M21 10H9V8h12v2zm0 6H9v-2h12v2zM4 5h2v11H4V5zm2 13v2H4v-2h2z"/></svg>

﻿<?xml version="1.0" encoding="utf-8"?>
<!DOCTYPE svg PUBLIC "-//W3C//DTD SVG 1.1//EN" "http://www.w3.org/Graphics/SVG/1.1/DTD/svg11.dtd">
<svg xmlns="http://www.w3.org/2000/svg" xmlns:xlink="http://www.w3.org/1999/xlink" version="1.1" baseProfile="full" width="24" height="24" viewBox="0 0 24.00 24.00" enable-background="new 0 0 24.00 24.00" xml:space="preserve">
	<path fill="#000000" fill-opacity="1" stroke-width="0.2" stroke-linejoin="round" d="M 21,10L 9,10L 9,8.00001L 21,8L 21,10 Z M 21,16L 9,16L 9,14L 21,14L 21,16 Z M 4,5L 6,5L 6,16L 4,16L 4,5 Z M 6,18L 6,20L 4,20L 4,18L 6,18 Z "/>
</svg>
